packages/foundations/assets/icons/functional/images/layout/list_12.svg

<svg width="12" height="12" viewBox="0 0 12 12" fill="none" xmlns="http://www.w3.org/2000/svg">
<g clip-path="url(#clip0_232_287)">
<path fill-rule="evenodd" clip-rule="evenodd" d="M5.40846 9.59999H9.61127C9.92529 9.59999 10.2 9.32459 10.2 8.99015C10.2 8.67539 9.92529 8.39999 9.61127 8.39999H5.40846C5.07481 8.39999 4.80005 8.67539 4.80005 8.99015C4.80005 9.32459 5.07481 9.59999 5.40846 9.59999ZM2.41324 9.59999H3.00664C3.32314 9.59999 3.60005 9.32459 3.60005 8.99015C3.60005 8.67539 3.32314 8.39999 3.00664 8.39999H2.41324C2.07696 8.39999 1.80005 8.67539 1.80005 8.99015C1.80005 9.32459 2.07696 9.59999 2.41324 9.59999ZM5.40846 6.59999H9.61127C9.92529 6.59999 10.2 6.32904 10.2 5.99999C10.2 5.67095 9.92529 5.39999 9.61127 5.39999H5.40846C5.07481 5.39999 4.80005 5.67095 4.80005 5.99999C4.80005 6.32904 5.07481 6.59999 5.40846 6.59999ZM2.41324 6.59999H3.00664C3.32314 6.59999 3.60005 6.32904 3.60005 5.99999C3.60005 5.67095 3.32314 5.39999 3.00664 5.39999H2.41324C2.07696 5.39999 1.80005 5.67095 1.80005 5.99999C1.80005 6.32904 2.07696 6.59999 2.41324 6.59999ZM5.40846 3.59999H9.61127C9.92529 3.59999 10.2 3.32459 10.2 2.99015C10.2 2.67539 9.92529 2.39999 9.61127 2.39999H5.40846C5.07481 2.39999 4.80005 2.67539 4.80005 2.99015C4.80005 3.32459 5.07481 3.59999 5.40846 3.59999ZM2.41324 3.59999H3.00664C3.32314 3.59999 3.60005 3.32459 3.60005 2.99015C3.60005 2.67539 3.32314 2.39999 3.00664 2.39999H2.41324C2.07696 2.39999 1.80005 2.67539 1.80005 2.99015C1.80005 3.32459 2.07696 3.59999 2.41324 3.59999Z" fill="#1A1C1F"/>
</g>
<defs>
<clipPath id="clip0_232_287">
<rect width="12" height="12" fill="white"/>
</clipPath>
</defs>
</svg>

<svg xmlns="http://www.w3.org/2000/svg" width="12" height="12" fill="none"><g clip-path="url(#a)"><path fill="#1A1C1F" fill-rule="evenodd" d="M5.408 9.6h4.203a.61.61 0 0 0 .589-.61.604.604 0 0 0-.589-.59H5.408a.61.61 0 0 0-.608.59c0 .335.275.61.608.61m-2.995 0h.594a.61.61 0 0 0 .593-.61.607.607 0 0 0-.593-.59h-.594c-.336 0-.613.275-.613.59 0 .335.277.61.613.61m2.995-3h4.203A.603.603 0 0 0 10.2 6c0-.329-.275-.6-.589-.6H5.408A.607.607 0 0 0 4.8 6c0 .329.275.6.608.6m-2.995 0h.594A.606.606 0 0 0 3.6 6c0-.329-.277-.6-.593-.6h-.594A.61.61 0 0 0 1.8 6c0 .329.277.6.613.6m2.995-3h4.203a.61.61 0 0 0 .589-.61.604.604 0 0 0-.589-.59H5.408a.61.61 0 0 0-.608.59c0 .335.275.61.608.61m-2.995 0h.594a.61.61 0 0 0 .593-.61.607.607 0 0 0-.593-.59h-.594c-.336 0-.613.275-.613.59 0 .335.277.61.613.61" clip-rule="evenodd"/></g><defs><clipPath id="a"><path fill="#fff" d="M0 0h12v12H0z"/></clipPath></defs></svg>
